X: 1
T:Johnny Watt Henry's
R:reel
Z:id:hn-reel-588
M:C|
K:D
A2~A2 B2AF|DFAF EDB,D|A2~A2 B2AB|dBAF EDB,D:|
d2fd edfd|d2fd BdAB|d2fd edfe|dBAF EDB,D|
d2fd edfd|d2fd BdAd|fdec d2AB|dBAF EDB,D||
